public/location-star.svg

<svg xmlns="http://www.w3.org/2000/svg" viewBox="0 0 512 512" style="height: 512px; width: 512px;"><path d="M0 0h512v512H0z" fill="#000" fill-opacity="1"></path><g class="" transform="translate(0,0)" style=""><path d="M320.063 19.72c-72.258 14.575-19.248 71.693-74.344 108.81 4.846-.49 9.746-.702 14.655-.624 16.288.26 32.785 3.72 48.594 10.72 4.96 2.196 9.723 4.667 14.25 7.405 12.107-47.476-37.103-96.38-3.158-126.31zM136.75 44.47c-40.76 61.357 36.984 64.33 24.406 129.405 17.407-21.255 41.17-35.9 67.156-42.313-25.006-42.138-94.4-41.924-91.562-87.093zm297.313 75.405c-32.547.872-45.475 46.314-96.594 36.22 21.35 17.42 36.034 41.25 42.467 67.31 42.306-24.92 42.053-94.466 87.282-91.624-13.43-8.92-24.06-12.15-33.158-11.905zm-177.97 26.656c-23.656.46-46.53 8.82-64.906 23.626l18.657 36.156L170 193.156c-3.576 5.264-6.737 10.908-9.406 16.938-8.726 19.708-11.002 40.59-7.78 60.344l44.78 2.125-34 30.312c10.798 20.622 28.414 37.852 51.406 48.03 3.077 1.364 6.186 2.574 9.313 3.626l24.53-38.25 9.095 43.814c27.3.075 53.737-10.387 73.593-29.188l-19.186-37.125 38.406 12.658c1.822-3.188 3.512-6.506 5.03-9.938 9.746-22.01 11.457-45.498 6.44-67.22l-37.626-1.75 27.687-24.718c-10.83-20.194-28.236-37.07-50.874-47.093-1.37-.607-2.745-1.176-4.125-1.72l-25.874 40.313-9.906-47.75c-.5-.016-1-.023-1.5-.032-1.3-.02-2.61-.024-3.906 0zM133.407 186.5c-41.652.725-82.483 34.847-108.72 5.094 14.573 72.234 71.664 19.3 108.783 74.312-2.154-20.972.934-42.758 10.06-63.375 2.178-4.915 4.637-9.604 7.345-14.093-5.822-1.47-11.642-2.038-17.47-1.937zm249.5 53.97c2.204 21.047-.867 42.926-10.03 63.624l-.188.375c-2.143 4.796-4.57 9.393-7.22 13.78 47.524 12.244 96.507-37.137 126.47-3.156-14.603-72.388-71.92-19.04-109.032-74.625zM136.53 283.405c-42.123 25.014-41.928 94.37-87.093 91.53 61.422 40.803 64.322-37.123 129.594-24.342-21.344-17.385-36.03-41.167-42.5-67.188zm219.064 48.906c-17.406 21.46-41.236 36.24-67.344 42.72 24.944 42.263 94.497 42.004 91.656 87.218 40.867-61.52-37.402-64.358-24.312-129.938zM193.406 360.72c-12.047 47.456 37.087 96.33 3.156 126.25 72.305-14.587 19.195-71.79 74.47-108.908-21.04 2.204-42.898-.9-63.594-10.062-4.884-2.162-9.57-4.594-14.032-7.28z" fill="#fff" fill-opacity="1"></path></g></svg>

<?xml version="1.0" encoding="UTF-8" standalone="no"?>
<!DOCTYPE svg PUBLIC "-//W3C//DTD SVG 1.1//EN" "http://www.w3.org/Graphics/SVG/1.1/DTD/svg11.dtd">
<svg width="100%" height="100%" viewBox="0 0 512 512" version="1.1" xmlns="http://www.w3.org/2000/svg" xmlns:xlink="http://www.w3.org/1999/xlink" xml:space="preserve" xmlns:serif="http://www.serif.com/" style="fill-rule:evenodd;clip-rule:evenodd;stroke-linejoin:round;stroke-miterlimit:2;">
    <g>
        <path d="M320.063,19.72C247.805,34.295 300.815,91.413 245.719,128.53C250.565,128.04 255.465,127.828 260.374,127.906C276.662,128.166 293.159,131.626 308.968,138.626C313.928,140.822 318.691,143.293 323.218,146.031C335.325,98.555 286.115,49.651 320.06,19.721L320.063,19.72ZM136.75,44.47C95.99,105.827 173.734,108.8 161.156,173.875C178.563,152.62 202.326,137.975 228.312,131.562C203.306,89.424 133.912,89.638 136.75,44.469L136.75,44.47ZM434.063,119.875C401.516,120.747 388.588,166.189 337.469,156.095C358.819,173.515 373.503,197.345 379.936,223.405C422.242,198.485 421.989,128.939 467.218,131.781C453.788,122.861 443.158,119.631 434.06,119.876L434.063,119.875ZM256.093,146.531C232.437,146.991 209.563,155.351 191.187,170.157L209.844,206.313L170,193.156C166.424,198.42 163.263,204.064 160.594,210.094C151.868,229.802 149.592,250.684 152.814,270.438L197.594,272.563L163.594,302.875C174.392,323.497 192.008,340.727 215,350.905C218.077,352.269 221.186,353.479 224.313,354.531L248.843,316.281L257.938,360.095C285.238,360.17 311.675,349.708 331.531,330.907L312.345,293.782L350.751,306.44C352.573,303.252 354.263,299.934 355.781,296.502C365.527,274.492 367.238,251.004 362.221,229.282L324.595,227.532L352.282,202.814C341.452,182.62 324.046,165.744 301.408,155.721C300.038,155.114 298.663,154.545 297.283,154.001L271.409,194.314L261.503,146.564C261.003,146.548 260.503,146.541 260.003,146.532C258.703,146.512 257.393,146.508 256.097,146.532L256.093,146.531ZM133.407,186.5C91.755,187.225 50.924,221.347 24.687,191.594C39.26,263.828 96.351,210.894 133.47,265.906C131.316,244.934 134.404,223.148 143.53,202.531C145.708,197.616 148.167,192.927 150.875,188.438C145.053,186.968 139.233,186.4 133.405,186.501L133.407,186.5ZM382.907,240.47C385.111,261.517 382.04,283.396 372.877,304.094L372.689,304.469C370.546,309.265 368.119,313.862 365.469,318.249C412.993,330.493 461.976,281.112 491.939,315.093C477.336,242.705 420.019,296.053 382.907,240.468L382.907,240.47ZM136.53,283.405C94.407,308.419 94.602,377.775 49.437,374.935C110.859,415.738 113.759,337.812 179.031,350.593C157.687,333.208 143.001,309.426 136.531,283.405L136.53,283.405ZM355.594,332.311C338.188,353.771 314.358,368.551 288.25,375.031C313.194,417.294 382.747,417.035 379.906,462.249C420.773,400.729 342.504,397.891 355.594,332.311ZM193.406,360.72C181.359,408.176 230.493,457.05 196.562,486.97C268.867,472.383 215.757,415.18 271.032,378.062C249.992,380.266 228.134,377.162 207.438,368C202.554,365.838 197.868,363.406 193.406,360.72Z" style="fill:white;fill-rule:nonzero;"/>
    </g>
</svg>
